X: 1
T:Tanz
C:Johann Jeep, arr. Frank Nordberg
O:Germany
N:1611
R:Allemande
Z:Transcribed by Frank Nordberg - http://www.musicaviva.com

V:1 Program 1 68 %Oboe
V:2 Program 1 69 %English horn
M:C|
L:1/4
K:F
V:1
F|A&gt;GFB|c2cF|GABG|A2 z:|
V:2
F|F&gt;EFD|C2CF|CA,G,G,|F,2 z:|
V:1

|:A|c&gt;BAF|G&gt;FEG|Acc=B|c2 z:|
V:2
|:F|F&gt;GFF|C&gt;DCC|F,A,G,G,|C2 z:|
V:1

|:c|d&gt;cBA|GAcc|dffe|f2 z:|
V:2
|:F|D&gt;A,B,F,|CFEF|B,DCC|F,2 z:|

